X:1
T:Title
%%score { 1 | 2 }
L:1/8
M:3/4
K:C
V:1 treble nm="Grand Piano"
V:2 bass 
V:1
 z2 z2[Q:1/4=100] C2 | E[EG] [EG]2 G2 | Ac c2 A2 | [EG]3 [CE] [Ec]E | E2 D2 [B,D]2 | %5
 [CE][EG] [EG]2 G2 | Ac c2 A2 | G3[K:bass] [G,CE] [F,B,D][E,C] |[M:2/4] [F,B,D]2 [E,C]2 | %9
[M:1/4][K:treble] [EG]2 |[M:3/4] [Ge][Ec] [Ec]2 [Gc]2 | cA A2 A2 | [EG]3 [CE] [Ec]E | E2 D2 G2 | %14
 [Ge][Ec] [Ec]2 [Gc]2 | cA A2 A2 | G3 e d[CEc] |[M:2/4] [B,Fd]2 [CEc]2 |] %18
V:2
 z2 z2 [C,E,]2 | [C,G,C][C,C] [C,C]2 [E,C]2 | [F,C][F,A,C] [F,A,C]2 [F,CF]2 | %3
 [C,C]3 [C,G,] [C,G,][E,G,C] | [G,C]2 [G,B,]2 [G,,G,]2 | [C,G,][C,C] [C,C]2 [E,C]2 | %6
 [F,C][F,A,C] [F,A,C]2 [F,CF]2 | [G,CE]3 G,, G,,G,, |[M:2/4] G,,2 C,2 |[M:1/4] [C,C]2 | %10
[M:3/4] [C,C][C,G,] [C,G,]2 [E,G,]2 | [F,A,F][F,CF] [F,CF]2 [F,CF]2 | [C,C]3 [C,G,] [C,G,][C,G,C] | %13
 [G,C]2 [G,B,]2 G,2 | [C,C][C,G,] [C,G,]2 [E,G,]2 | [F,A,F][F,CF] [F,CF]2 [F,CF]2 | %16
 [G,CE]3 [G,CG][K:bass] [G,,B,F]G,, |[M:2/4] G,,2 C,2 |] %18

